X:1
T:Title
%%score { ( 1 4 ) | ( 2 3 ) }
L:1/8
M:4/4
K:Bb
V:1 treble nm="Grand Piano"
V:4 treble 
V:2 bass 
V:3 bass 
V:1
 z4 z2[Q:1/4=100] [DF]2 | [DF]>[DF] [DF]>[DF] [DFB]2 [B,FB]>[B,FB] | [Gc]4 G2 G2 | A2 A2 G2 F2 | %4
 [B,DF]4 D2 [DF]2 | [DF]>[DF] [DF]>[DF] [DF]2 [FB]>[FB] | [Gc]4 G2 G2 | A2 A>B c2 d2 | [DB]6 z2 | %9
 F4 B4 | z2 E2 c2- [Gc][GB] | A>A A>A G2 F2 | [EG]4 [DF]4 | F4 B4 | z2 E2 c2- [Gc][GB] | %15
 A>A A>B c2 d2 |[M:7/8] [B,DB]-[B,DB]-[B,DB]- [B,DB]- [B,DB]3 |] %17
V:2
 z4 z2 [B,,B,]2 | [B,,B,]>[B,,B,] [B,,B,]>[B,,B,] B,,2 D,>D, | [E,G,]4 [E,B,]2 [E,E]2 | %3
 [F,CF]2 [F,CF]2 [F,B,E]2 [F,A,E]2 | z4 B,2 [B,,B,]2 | %5
 [B,,B,]>[B,,B,] [B,,B,]>[B,,B,] [B,,B,]2 [D,B,]>[D,B,] | [E,G,]4 [E,B,]2 [E,E]2 | %7
 [F,CF]2 [F,CF]>[F,B,F] [F,A,F]2 [F,A,F]2 | [B,,B,]6 z2 | [B,,B,]2 [B,,B,]2 [B,,B,]2 [B,,B,]2 | %10
 [E,B,E]2 [E,B,]2 [E,E]2 [E,E][E,E] | [F,CF]>[F,CF] [F,CF]>[F,CF] [F,B,E]2 [F,A,E]2 | %12
 [B,,B,]2 [B,,B,]2 [B,,B,]4 | [B,,B,]2 [B,,B,]2 [B,,B,]2 [B,,B,]2 | %14
 [E,B,E]2 [E,B,]2 [E,E]2 [E,E][E,E] | [F,CF]>[F,CF] [F,CF]>[F,B,F] [F,A,F]2 [F,A,F]2 | %16
[M:7/8] B,,2 B,,2 B,,3 |] %17
V:3
 x8 | x8 | x8 | x8 | B,,6 z2 | x8 | x8 | x8 | x8 | x8 | x8 | x8 | x8 | x8 | x8 | x8 |[M:7/8] x7 |] %17
V:4
 x8 | x8 | x8 | x8 | x8 | x8 | x8 | x8 | x8 | D2 D2 D2 D2 | G4 G2 z2 | x8 | x8 | D2 D2 D2 D2 | %14
 G4 G2 z2 | x8 |[M:7/8] x7 |] %17

